X:16
T:Lichtmann 16
C:J. S. Bach
M:9/8
L:1/8
Q:"Con moto" 3/8=66
K:F
!mf!z(F"_sostenuto"G) (AcB) (Bdc)|(cfe) (fcA) (FGA)|(Bcd) (cBA) (GAF)|(EFG) (CEG) (BAG)|
(AFG) (AcB) (Bdc)|(cfe) (fcA) (FGA)|(DcB) (AGF) (CFE)|(FAc) (fcA) F3||
z(CD) (EGF) (GBA)|(FAG) (AcB) (Bdc)|(cfe) (fcA) (FGA)|(Bcd) (cBA) (GAF)|
(EFG) (CEG) (BAG)|(AFG) (AcB) (Bdc)| (cfe) (fcA) (FGA)|"_rit."(DcB) (AGF) (CFE)|F6 |]

